!!!COM:	Bach, Johann Sebastian
!!!OMV:	O Gott, du frommer Gott
!!!OTL:	O Gott, du frommer Gott
**kern	**fb	**kern	**kern	**kern	**kern
*part5	*part5	*part4	*part3	*part2	*part1
*staff5	*	*staff4	*staff3	*staff2	*staff1
*I"Continuo	*	*I"Voice	*I"Voice	*I"Voice	*I"Voice
*I'Cont.	*	*I'V	*I'V	*I'V	*I'V
*clefF4	*	*clefF4	*clefGv2	*clefG2	*clefG2
*Trd0c0	*	*	*	*	*
*k[b-e-]	*	*k[b-e-]	*k[b-e-]	*k[b-e-]	*k[b-e-]
*M4/4	*	*M4/4	*M4/4	*M4/4	*M4/4
4C	.	4C	4c	4e-	4g
=2	=2	=2	=2	=2	=2
4c	.	4c	4e-	4g	4cc
4Bn	6	4Bn	4d	4g	4dd
4c	.	4c	4c	4g	4ee-
4G	n	4G	4Bn	8gL	4dd
.	.	.	.	8fJ	.
=3	=3	=3	=3	=3	=3
4A-X	5	4A-X	4c	4e-	4cc
4F	6	4F	4f	4a-X	4dd
4G	n	4G	4d	4g	4bn
4GG;	.	4GG;	4Bn;	4d;	4g;
=4	=4	=4	=4	=4	=4
4r	.	4r	4r	4r	4r
4G	.	4G	4d	4g	4b-X
4C	7	4C	4e-	4g	4b-
4D	6 -r5	4D	8fL	4f	4a-X
.	.	.	8B-XJ	.	.
=5	=5	=5	=5	=5	=5
4.E-	5	4.E-	4B-	4e-	4g
.	6	.	8cL	4g	4cc
8F	6 5	8F	8dJ	.	.
4G	6 4	4G	4e-	4g	8ccL
.	.	.	.	.	8ddJ
4GG	5 n	4GG	4d	4g	4bn
=	=	=	=	=	=
2.C;	.	2.C;	2.e-;	2.g;	2.cc;
=6:|!	=6:|!	=6:|!	=6:|!	=6:|!	=6:|!
4G	n	4G	4Bn	4g	4dd
=7	=7	=7	=7	=7	=7
!!linebreak:original
4c	.	4c	4c	4g	4ee-
8B-L	.	8B-L	4d	4b-	4ff
8A-XJ	.	8A-XJ	.	.	.
4G	6	4G	4e-	4b-	4gg
8FL	7 5	8FL	4e-	4b-	4gg
8E-J	.	8E-J	.	.	.
=8	=8	=8	=8	=8	=8
4A-X	6 5	4A-X	4e-	4cc	4ff
4B-	.	4B-	4d	8b-L	4ff
.	.	.	.	8a-XJ	.
2E-;	.	2E-;	2B-;	2g;	2ee-;
=9	=9	=9	=9	=9	=9
4r	.	4r	4r	4r	4r
4E-	.	4E-	4e-	4b-	4gg
4F	7 -	4F	8e-L	4a-X	4ff
.	6	.	8dJ	.	.
4F#X	7 5	4F#X	8cL	4an	4ee-
.	.	.	8AJ	.	.
=10	=10	=10	=10	=10	=10
4G	8 n	4G	8dL	4bn	4dd
.	7	.	16e-L	.	.
.	.	.	16fJJ	.	.
8A-XL	5	8A-XL	4e-	4cc	8ccL
8GJ	.	8GJ	.	.	8ddJ
4F#X	7 5	4F#X	8AL	4cc	4ee-
.	.	.	16BnL	.	.
.	.	.	16cJJ	.	.
4G	n	4G	4B	8gL	4dd
.	.	.	.	8fJ	.
=11	=11	=11	=11	=11	=11
2.C;	.	2.C;	2.G;	2.en;	2.cc;
=||	=||	=||	=||	=||	=||
*-	*-	*-	*-	*-	*-
!!!system-decoration: s1,s2,s3,s4,s5
